X:1
T:Der 121. Psalm
T:Karl Heinrich Zöllner (1792-1836)
T:nach Moses Mendelssohns Übersetzung, 1783
T:Der 121. Psalm
T:CPDL - Creative Commons Attribution Non Commercial 3.0
T:CPDL - Creative Commons Attribution Non Commercial 3.0
T:CPDL - Creative Commons Attribution Non Commercial 3.0
T:CPDL - Creative Commons Attribution Non Commercial 3.0
T:CPDL - Creative Commons Attribution Non Commercial 3.0
T:CPDL - Creative Commons Attribution Non Commercial 3.0
T:CPDL - Creative Commons Attribution Non Commercial 3.0
T:CPDL - Creative Commons Attribution Non Commercial 3.0
T:CPDL - Creative Commons Attribution Non Commercial 3.0
T:CPDL - Creative Commons Attribution Non Commercial 3.0
C:Karl Heinrich Zöllner
Z:CPDL - Creative Commons Attribution Non Commercial 3.0
%%score [ 1 2 3 4 ]
L:1/8
Q:1/4=80
M:4/4
K:Bb
V:1 treble-8 nm="Tenor\n1"
V:2 treble-8 nm="Tenor\n2"
V:3 bass nm="Bass\n1"
V:4 bass nm="Bass"
V:1
"^Adagio" z2 | z8 | z4 z2 B2 | e3 e e>e ee | (d4 g4 | c2) cc fedc | B3 c/d/ e2 ee | ecfe d3 f | %8
w: ||Ich|schau em- por nach je- nen|Ber- *|* gen, ich schau em- por nach|je- nen * Ber- gen: wo|kommt mir Hil- fe her, wo|
 f e/d/ gf e3 e | d3 d d =e/^f/ gg | ^f2 z2 z2 d2 | d3 c BBcd | (d2 cB) A z z c | f3 e ddef | %14
w: kommt mir * Hil- fe, Hil- fe|her? wo kommt mir * Hil- fe|her? Vom|E- wi- gen kommt mei- ne|Hil- * * fe, vom|E- wi- gen kommt mei- ne|
 (g4 f4 | e4 d2) dd | c3 d e>e ee | e4 d2 f2 | (f4 e2) e2 | (e4 d2) d2 | c8 | d2 z2 z dcB | %22
w: Hil- *|* * fe, vom|E- wi- gen kommt mei- ne|Hil- fe, der|Him- * mel|schuf _ und|Er-|de. Er lässt nicht|
 f4- f3 f | fedc B2 z2 | z4 z edc | g4- g3 g | gfed cd/e/ dc | B z z G c2 cc | cABd =e2 ee | %29
w: glei- * ten|dei- * * nen Fuß,|er lässt nicht|glei- * ten,|lässt nicht glei- ten dei- * * * nen|Fuß, dein Hü- ter, dein|Hü- * ter, dein Hü- ter, dein|
 ^f2 g2 Aedc | =B4 z2 z f | e2 z c dfed | ceee (e4 | d3) d d2 d2 | d2 g2 g2 ^f2 | g2 z2 z4 | z8 | %37
w: Hü- ter schlum- * * mert|nicht. O|nein, er schäft und schlum- mert|nicht, der Hü- ter Is-|* ra- els, er|schäft und schlum- mert|nicht.||
 z4 z d^cd | =f3 f edgf | e4 z4 | z c=Bc fedc | d3 d | d3 d | d3 =c =Bdgf | e4 e2 e2 | d4 z4 | z8 | %47
w: Er lässt nicht|glei- ten dei- * * nen|Fuß,|er lässt nicht glei- ten dei- nen|Fuß, er|lässt nicht|glei- ten dei- * * nen|Fuß, dei- nen|Fuß;||
 z8 | z8 | z8 | z4 z2 c2 | f3 f fdgf | e2 z2 z4 | z4 z2 e2 | _a3 a fdB_A | G2 z2 z ecf | e6 d2 | %57
w: |||dein|Hü- ter schlum- * * mert|nicht,|dein|Hü- ter schäft und schlum- mert|nicht, er schäft und|schlum- mert|
 e4 z4 | z8 | z4 z2 B2 | e3 e e>e ee | (d4- de c2 | cd)BB B2 BB | e3 f d3 e | d2 c2 z2 c2 | c6 c2 | %66
w: nicht!||Der|Herr be- hü- te dich vor|Ü- * * *|* * bel, be- hü- te, be-|hü- te dei- ne|See- le! be-|hü- te|
 c4 z2 c2 | c6 c2 | c2 F2 z cde | (f3 e dedc | BcB)A GA B c/d/ | (e3 d cdcB | AB c) d/e/ ffff | %73
w: dich, du|gehst, du|kom- mest; wie jetzt, so|al- * * * * *|* * * le Zeit, wie jetzt, so *|al- * * * * *|* * * le * Zeit, wie jetzt, so|
 (f2 e4 d2 | c6) c2 | d4 z ddd | d4 d4 | !fermata!d6 |] %78
w: al- * *|* le|Zeit, wie jetzt, so|al- le|Zeit.|
V:2
 B2 | B8- | B8- | (B2 A)B c>c cc | (c2 BA GdcB | A2) AA dcBA | G3 A/B/ c2 c z | z2 z F/G/ _AFBA | %8
w: Ich|schau|_|* * em- por nach je- nen|Ber- * * * * * *|* gen, ich schau em- por nach|je- nen * Ber- gen:|wo * kommt mir Hil- fe|
 G3 =A/=B/ c3 _B | A3 A Gddd | d2 z2 z2 A2 | B3 A GGGG | A4 A z z A | d3 c BBcd | (e6 d2- | %15
w: her, mir * Hil- fe|her? wo kommt mir Hil- fe|her? Vom|E- wi- gen kommt mei- ne|Hil- fe, vom|E- wi- gen kommt mei- ne|Hil- *|
 d2 c4) BB | B3 B B>B AB | c4 B2 d2 | (d4 c2) cB | (A2 GA B2) B2 | (B2 AG ABGA) | B2 z2 z4 | %22
w: * * fe, vom|E- wi- gen kommt mei- ne|Hil- fe, der|Him- * mel *|schuf _ _ _ und|Er- * * * * * *|de.|
 z4 z2 z e | dcBA GFE z | z8 | z4 z2 z f | edcB A3 A | BB B4 AA | d2 dd d2 ^c2 | =c2 B_e cAdD | %30
w: Er|lässt nicht glei- ten dei- nen Fuß,||er|lässt nicht glei- ten dei- nen|Fuß, dein Hü- ter, dein|Hü- ter, dein Hü- ter,|schlum- mert, dein Hü- ter schlum- mert|
 G4 z2 z d | c2 z c cc=BB | c z z2 z ccc | c3 c c2 c2 | B2 B2 e2 d2 | d2 z2 z ddd | d4- dc Bc | %37
w: nicht. O|nein, er schäft und schlum- mert|nicht, der Hü- ter|Is- ra- els, er|schäft und schlum- mert|nicht, er schäft und|schlum- * * mert *|
 d4 z4 | z8 | z G^FG cBAG | =F4 z4 | z F=EF | B_AGA | G4 G2 G2 | c4 c2 c2 | c3 c BA dc | %46
w: nicht.||Er lässt nicht glei- ten dei- nen|Fuß,|er lässt nicht|glei- ten dei- nen|Fuß, dei- nen|Fuß, dei- nen|Fuß, er lässt * nicht *|
 BdcB Aedc | =Bfed c3 d | e2 z2 z4 | z4 z2 _A2 | c8- | (c2 =B)c B3 B | c2 e2 e4- | e8- | %54
w: glei- * * * * * * *|* * * ten dei- nen|Fuß;|dein|Hü-|* * ter schlum- mert|nicht, dein Hü-||
 (e2 d)e ffff | e>G B>e c2 c2 | B6 B2 | B4 z2 B2 | B8- | B8- | (B2 =A)B c>c cc | (c2 BA G3 A | %62
w: * * ter schäft und schlum- mert|nicht, o nein, er schäft und|schlum- mert|nicht! Der|Herr|_|* * be- hü- te dich vor|Ü- * * * *|
 F2) FF BAGF | A3 A B3 B | B2 A2 z2 A2 | B6 B2 | A4 z2 A2 | B6 B2 | A2 A2 z ABc | (d3 c BcBA | %70
w: * bel, be- hü- * te, be-|hü- te dei- ne|See- le! be-|hü- te|dich, du|gehst, du|kom- mest; wie jetzt, so|al- * * * * *|
 GAG)F EF G A/B/ | (c3 B ABAG | FG A) B/c/ dddd | (d2 c4 B2- | B2 AG AB) GA | B4 z BBB | B4 B4 | %77
w: * * * le Zeit, wie jetzt, so *|al- * * * * *|* * * le * Zeit, wie jetzt, so|al- * *|* * * * * le *|Zeit, wie jetzt, so|al- le|
 !fermata!B6 |] %78
w: Zeit.|
V:3
 z2 | z4 z2 B,2 | G,8- | (G,2 _G,)G, F,>F, =G,A, | (A,2 G,F, E,F,)G,G, | CB,A,G, (F,2 G,A, | %6
w: |Ich|schau|_ _ em- por nach je- nen|Ber- * * * * gen, ich|schau em- por nach je- * *|
 B,A,G,F, A,G,C)B, | A,A, z2 z4 | z2 z G, G,E,_A,G, | ^F,3 F, G,CB,B, | A,2 z2 z2 ^F,2 | %11
w: * * * * * * * nen|Ber- gen:|wo kommt mir Hil- fe|her, wo kommt mir Hil- fe|her? Vom|
 G,3 G, G, z z G, | E3 D CB,A,G, | (F,2 G,A,) B,3 A, | (G,2 A,4) _A,2 | (G,2 _G,2 F,2) F,F, | %16
w: E- wi- gen vom|E- wi- gen kommt mei- ne|Hil- * * fe, kommt|mei- * ne|Hil- * * fe, vom|
 =G,3 G, G,>G, _G,G, | F,4 F,2 B,A, | G,6 _G,2 | F,6 F,2 | F,8 | F,2 z2 z4 | %22
w: E- wi- gen kommt mei- ne|Hil- fe, der *|Him- mel|schuf und|Er-|de.|
 z DCB, A,G, F, G,/A,/ | B,2 D, E,/F,/ G,A,B,A, | G,A,G,F, E,2 z2 | z EDC =B,A, G, A,/B,/ | %26
w: Er lässt nicht glei- ten dei- nen *|Fuß, lässt nicht * glei- * * ten|dei- * * nen Fuß,|er lässt nicht glei- ten dei- nen *|
 C2 G,G, G,G,^F,F, | G, z z2 z4 | z2 z B, G,=E,A,A,, | D,2 z2 z2 z ^F, | G,4 z2 z G, | %31
w: Fuß, lässt nicht glei- ten dei- nen|Fuß,|dein Hü- ter schlum- mert|nicht. O|nein, o|
 G,2 z _A, F,D,G,F, | E, z z2 z G,G,G, | ^F,3 G, A,2 A,2 | G,2 G,2 A,2 A,2 | B,2 B,2 B,2 A,2 | %36
w: nein, er schäft und schlum- mert|nicht, der Hü- ter|Is- ra- els, er|schäft und schlum- mert|nicht, er schäft und|
 G,6 G,2 | ^F,4 z4 | z D,^C,D, G,=F,E,D, | =C,3 C, EDCB, | A,3 E DCB,A, | B,3 B, | F,3 F, | %43
w: schlum- mert|nicht.|Er lässt nicht glei- ten dei- nen|Fuß, nicht glei- ten dei- nen|Fuß, er lässt nicht glei- ten|dei- nen|Fuß, er|
 E,D,^C,D, G,F,E,D, | C,G,^F,G, CB,A,G, | ^F,3 F, F,2 F,2 | G,8- | G,3 G, G,_A,G,F, | %48
w: lässt nicht glei- ten dei- * * nen|Fuß, er lässt nicht glei- ten dei- nen|Fuß, er lässt nicht|glei-|* ten dei- * * nen|
 E,2 z2 z2 E,2 | _A,8- | A,8- | A,3 _A, G,3 G, | G,2 z2 z2 E2 | C8- | (C2 _C)C B,B,B,B, | %55
w: Fuß; dein|Hü-||* ter schlum- mert|nicht, dein|Hü-|* * ter schäft und schlum- mert|
 B,>E, E,>E, E,2 _A,2 | (G,2 _G,2 F,2) _A,2 | G,4 z4 | z4 z2 B,2 | G,8- | (G,2 _G,)G, F,>F, =G,A, | %61
w: nicht, o nein, er schäft und|schlum- * * mert|nicht!|Der|Herr|_ _ be- hü- te dich vor|
 (A,2 G,F, E,4 | D,2) D,D, G,F,E,F, | F,4 F,4 | F,2 F,2 z2 F,2 | =E,6 E,2 | F,4 z2 F,2 | =E,6 E,2 | %68
w: Ü- * * *|* bel, be- hü- * * te|dei- ne|See- le! be-|hü- te|dich, du|gehst, du|
 F,2 F,2 z F,F,F, | (F,4- F,D,E,F, | G,3) A, B,A,G,F, | (G,4- G,E,F,G, | A,3) G, F, D/C/ B,A, | %73
w: kom- mest; wie jetzt, so|al- * * * *|* le Zeit, wie jetzt, so|al- * * * *|* le Zeit, wie * jetzt, so|
 (G,3 B, A,2 B,2 | F,6) F,2 | F,4 z F,F,F, | F,4 F,4 | !fermata!F,6 |] %78
w: al- * * *|* le|Zeit, wie jetzt, so|al- le|Zeit.|
V:4
 z2 | z8 | z4 z2 E,D, | C,3 B,, A,,>A,, G,,F,, | (B,,4 E,4 | E,2) E,E, (D,2 E,)F, | %6
w: ||Ich *|schau em- por nach je- nen|Ber- *|* gen, ich schau _ em-|
 G,F,E,D, C,B,,A,,G,, | F,,F,, z2 z2 z C, | =B,,F,E,D, C,3 C, | C,B,,/=A,,/D,C, B,,A,,G,,G,, | %10
w: por nach je- nen, je- * * nen|Ber- gen: wo|kommt mir Hil- fe her, wo|kommt _ _ _ _ _ mir Hil- fe|
 D,2 z2 z2 D,2 | G,,3 G,, G,,G,,A,,B,, | (C,2 D,E,) F,G,F,E, | (D,2 E,F,) G,3 F, | %14
w: her? Vom|E- wi- gen kommt mei- ne|Hil- * * fe, kommt mei- ne|Hil- * * fe, vom|
 E,2 C,2 D,2 =B,,2 | C,2 A,,2 B,,2 C,D, | E,3 D, C,>C, B,,B,, | B,,A,,G,,A,, B,,2 B,,2 | E,6 E,2 | %19
w: E- wi- gen kommt|mei- ne Hil- fe, vom|E- wi- gen kommt mei- ne|Hil- * * * fe, der|Him- mel|
 F,6 D,B,, | (F,,6 F,2) | B,,2 z2 z4 | z B,A,G, F,E,D,C, | B,,2 B,, C,/D,/ E,F,G,F, | %24
w: schuf und *|Er- *|de.|Er lässt nicht glei- ten dei- nen|Fuß, lässt nicht * glei- * * ten|
 E,F,E,D, C,2 z2 | z C=B,A, G,F,E,D, | C,2 C,C, D,D,D,D, | G,, z z G, E,C,F,F,, | B,,2 z2 z4 | %29
w: dei- * * nen Fuß,|er lässt nicht glei- ten dei- nen|Fuß, lässt nicht glei- ten dei- nen|Fuß, dein Hü- ter schlum- mert|nicht.|
 z4 z2 z D, | G,,4 z2 z =B,, | C,2 z _A, F,D,G,G,, | C, z z2 z C,C,B,, | A,,3 G,, ^F,,2 z2 | %34
w: O|nein, o|nein, er schäft und schlum- mert|nicht, der Hü- ter|Is- ra- els,|
 z2 z E, C,A,,D,D, | G,,2 G,2 G,2 =F,2 | E,6 E,2 | D,4 z4 | z8 | z4 z2 z C, | F,3 F, F,3 F, | %41
w: er schäft und schlum- mert|nicht, er schäft und|schlum- mert|nicht.||Er|lässt nicht glei- ten|
 B,,4- | B,,2 B,,2 | =B,,4 z4 | z8 | z A,,^G,,A,, D,C,B,,A,, | G,,B,,A,,G,, C,A,,B,,C, | %47
w: dei-|* nen|Fuß,||er lässt nicht glei- ten dei- nen|Fuß, _ _ er lässt _ _ nicht|
 D,=B,,C,D, E,F,E,D, | C,2 z2 z4 | z8 | z4 z2 F,E, | D,3 D, G,3 G, | C,2 z2 z4 | z4 z2 _A,G, | %54
w: glei- * * ten dei- * * nen|Fuß;||dein *|Hü- ter schlum- mert|nicht,|dein *|
 F,3 E, D,D,D,D, | E,>E, G,,>G,, _A,,2 A,,2 | B,,6 B,,2 | E,,4 z4 | z8 | z4 z2 E,D, | %60
w: Hü- ter schäft und schlum- mert|nicht, o nein, er schäft und|schlum- mert|nicht!||Der *|
 C,3 B,, A,,>A,, G,,F,, | B,,2 B,,2 z4 | z4 z2 z D, | C,3 C, B,,3 B,, | F,2 F,2 z2 F,,2 | %65
w: Herr be- hü- te dich vor|Ü- bel,|be-|hü- te dei- ne|See- le! be-|
 _G,,6 G,,2 | F,,4 z2 F,,2 | _G,,6 G,,2 | F,,2 F,,2 z E,D,C, | (B,,4- B,,2 C,D, | %70
w: hü- te|dich, du|gehst, du|kom- mest; wie jetzt, so|al- * * *|
 E,3) F, G,F,E,D, | (C,4- C,2 D,E, | F,3) E, D,B,,C,D, | (E,3 C, F,2 F,,2 | F,6) F,2 | %75
w: * le Zeit, wie jetzt, so|al- * * *|* le Zeit, wie jetzt, so|al- * * *|* le|
 B,,4 z B,,B,,B,, | B,,4 B,,4 | !fermata!B,,6 |] %78
w: Zeit, wie jetzt, so|al- le|Zeit.|

